X:1
T:Title
%%score ( 1 2 ) 3
L:1/8
Q:1/4=83
M:4/4
K:Bb
V:1 treble nm="Grand Piano, Soprano"
V:2 treble 
V:3 bass nm="Choir Pad, While thre Years Are Rolling"
V:1
 [DB]>[Ec] [Fd]>[Fd] [Fd]>[DB] [Ec]<[DB] | [DB]>[DB] [Ec]>[DB] [Ec]<[Fd] [DB]2 | %2
w: By~John~Robson~Sweney * * * * * * *||
 [DB]>[Ec] [Fd]>[Fd] [Fd]>[DB] [Ec]<[DB] | [DB]>[DB] [=Ec]>[EG] [EB]<[EB] [FA]2 | %4
w: ||
 [Fc]>[Fd] [Fe]>[Fd] [Fc]>[FB] [Fd]2 | [Fd]>[Ec] [Ec]<[DB] [EB]>[EG] [DF]2 | %6
w: ||
 [B,D]>[CE] [DF]>[DB] [DB]>[Ec] [Fd]2 | [Ge]>[Ge] [Fd]>[DB] [Ec]<[Ec] [DB]2 | z2 c4 z2 | z2 d6 | %10
w: ||||
 [B,D]>[CE] [DF]>[DB] [DB]>[Ec] [Fd]<[Fd] | e>[Ge] [Fd]>[DB] [Ec]<[Ec] [DB]2- | [DB]4 z4 |] %13
w: |||
V:2
 x8 | x8 | x8 | x8 | x8 | x8 | x8 | x8 | F/GF/ z z/ E/ E>E E>F | G>F z z/ F/ F>F F2 | x8 | x8 | %12
 x8 |] %13
V:3
 [B,,F,]>[B,,F,] [B,,B,]>[B,,B,] [B,,B,]>[B,,F,] [B,,F,]<[B,,F,] | %1
 [B,,F,]>[B,,F,] [F,A,]>[F,A,] [F,A,]<[F,A,] [B,,F,B,]2 | %2
 [B,,F,]>[B,,F,] [B,,B,]>[B,,B,] [B,,B,]>[B,,F,] [B,,F,]<[B,,F,] | %3
 [B,,F,]>[D,F,] [C,G,]>[C,C] [C,C]<[C,C] [F,C]2 | %4
 [F,A,]>[F,B,] [F,C]>[F,B,] [F,A,]>[F,D] [B,,B,]2 | %5
 [B,,B,]>[B,,F,] [B,,F,]<[B,,F,] [E,G,]>[E,B,] [B,,B,]2 | %6
 [B,,F,]>[B,,F,] [B,,B,]>[B,,F,] [B,,F,]>[B,,F,] [B,,B,]2 | %7
 [E,B,]>[E,B,] [F,B,]>F, [F,A,]<[F,A,] [B,,F,B,]2 | z2 z z/ [F,A,]/ [F,A,]>[F,A,] [F,A,]2 | %9
 z2 z z/ [B,,B,]/ [B,,B,]>[B,,B,] [B,,B,]2 | %10
 [B,,F,]>[B,,F,] [B,,B,]>[B,,F,] [B,,F,]>[B,,F,] [B,,F,B,]<[B,,B,] | %11
 [E,B,]>[E,B,] [F,B,]>F, [F,A,]<[F,A,] [B,,F,B,]2- | [B,,F,B,]4 z4 |] %13

